icons/ppe_suit_fill.svg

<svg width="48" height="48" viewBox="0 0 48 48" fill="none" xmlns="http://www.w3.org/2000/svg">
<path fill-rule="evenodd" clip-rule="evenodd" d="M18 8C18 5.79086 19.7909 4 22 4H26C28.2091 4 30 5.79086 30 8V14.4167H31C33.2091 14.4167 35 16.2075 35 18.4167V31C35 32.6569 33.6569 34 32 34C31.6494 34 31.3128 33.9398 31 33.8293V41C31 42.6569 29.6569 44 28 44C26.3431 44 25 42.6569 25 41V29H23V41C23 42.6569 21.6569 44 20 44C18.3431 44 17 42.6569 17 41V33.8293C16.6872 33.9398 16.3506 34 16 34C14.3431 34 13 32.6569 13 31V18.4167C13 16.2075 14.7909 14.4167 17 14.4167H18V8ZM31 31C31 31.5523 31.4477 32 32 32C32.5523 32 33 31.5523 33 31V30H31V31ZM16 32C15.4477 32 15 31.5523 15 31V30H17V31C17 31.5523 16.5523 32 16 32ZM26 11C27.1046 11 28 10.1046 28 9V7H20V9C20 10.1046 20.8954 11 22 11H26ZM17.4001 23.7917H22.8999V14.4167H25.0999V23.7917H30.6001V25.875H17.4001V23.7917Z" fill="black"/>
</svg>

<svg
  xmlns="http://www.w3.org/2000/svg"
  width="24"
  height="24"
  viewBox="0 0 24 24"
  fill="none"
  stroke="currentColor"
  stroke-width="2"
  stroke-linecap="round"
  stroke-linejoin="round"
>
  <path
    fill-rule="evenodd"
    d="M18 8a4 4 0 0 1 4-4h4a4 4 0 0 1 4 4v6.417h1a4 4 0 0 1 4 4V31a3 3 0 0 1-4 2.83V41a3 3 0 1 1-6 0V29h-2v12a3 3 0 1 1-6 0v-7.17A3 3 0 0 1 13 31V18.417a4 4 0 0 1 4-4h1zm13 23a1 1 0 1 0 2 0v-1h-2zm-15 1a1 1 0 0 1-1-1v-1h2v1a1 1 0 0 1-1 1m10-21a2 2 0 0 0 2-2V7h-8v2a2 2 0 0 0 2 2zm-8.6 12.792h5.5v-9.375h2.2v9.375h5.5v2.083H17.4z"
    clip-rule="evenodd"
  />
</svg>
